X:1
T:Gartenlieder, Op.3
T:Abendlich schon rauscht der Wald
T:Gartenlieder, Op.3
T:Fanny (Mendelssohn) Hensel
T:Joseph von Eichendorff
T:5. Abendlich schon rauscht der Wald
T:Creative Commons copyright waiver (CC0 1.0 Universal)
T:Creative Commons copyright waiver (CC0 1.0 Universal)
T:Creative Commons copyright waiver (CC0 1.0 Universal)
C:Fanny (Mendelssohn) Hensel
Z:Joseph von Eichendorff
Z:Creative Commons copyright waiver (CC0 1.0 Universal)
%%score [ 1 2 3 4 ]
L:1/8
Q:1/4=92
M:4/4
K:C
V:1 treble nm="Soprano"
V:2 treble nm="Alto"
V:3 treble-8 nm="Tenor"
V:4 bass nm="Bass"
V:1
"^NOTE TO TRANSCRIBER: we suggest that you always fill in the lyrics below the Soprano, Alto & Tenor  staves.\nThis consistency of lyrics underlay will make it easier for a choir to read and perform the work.  See example measures on system 1.\n""^Andante"!p! c3 B A2 E2 | %1
w: A- bend- lich schon|
 F2 A2 E4 |!<(! F2 F2 E2 ^D2!<)! | z8 | z8 | z8 | z8 | z8 | z8 | z8 | z8 | z8 | z8 | z8 | z8 | z8 | %16
w: rauscht der Wald,|aus den tie- fen||||||||||||||
 z8 | z8 | z8 | z8 | z8 | z8 | z8 | z8 | z8 | z8 | z8 | z8 | z8 | z8 | z8 | z8 | z8 | z8 | z8 | %35
w: |||||||||||||||||||
 z8 | z8 |] %37
w: ||
V:2
!p! c3 B A2 C2 | D2 B,2 C4 | C2 C2 B,2 A,2 | z8 | z8 | z8 | z8 | z8 | z8 | z8 | z8 | z8 | z8 | z8 | %14
w: A- bend- lich schon|rauscht der Wald,|aus den tie- fen||||||||||||
 z8 | z8 | z8 | z8 | z8 | z8 | z8 | z8 | z8 | z8 | z8 | z8 | z8 | z8 | z8 | z8 | z8 | z8 | z8 | %33
w: |||||||||||||||||||
 z8 | z8 | z8 | z8 |] %37
w: ||||
V:3
!p! c3 B A2 A2 | D2 F2 A4 | A2 A2 G2 A2 | z8 | z8 | z8 | z8 | z8 | z8 | z8 | z8 | z8 | z8 | z8 | %14
w: A- bend- lich schon|rauscht der Wald,|aus den tie- fen||||||||||||
 z8 | z8 | z8 | z8 | z8 | z8 | z8 | z8 | z8 | z8 | z8 | z8 | z8 | z8 | z8 | z8 | z8 | z8 | z8 | %33
w: |||||||||||||||||||
 z8 | z8 | z8 | z8 |] %37
w: ||||
V:4
!p! C3 B, A,2 A,,2 | A,,2 A,,2 A,,4 | A,2 A,2 G,2 F,2 | z8 | z8 | z8 | z8 | z8 | z8 | z8 | z8 | %11
 z8 | z8 | z8 | z8 | z8 | z8 | z8 | z8 | z8 | z8 | z8 | z8 | z8 | z8 | z8 | z8 | z8 | z8 | z8 | %30
 z8 | z8 | z8 | z8 | z8 | z8 | z8 |] %37

